X: 1
T: Fifth Gear
C: Syncopaths
M: 4/4
K: Am
|: "Am" EAAG A2EA | GAAE GEDG | "C" EAAG A2GA | cABG A2ED |
| "D" EAAG A2EA | GAAE GEDB, | "F" CA,B,G, A,EGA |1 "G" cABG AGED :|2 "G" cABG AGEe- ||
|: "Am" eAdA cBAe | gedB "G/B" e3 e- | eAdA BAGB | AGEA GEDe- |
| "C" eAdA cBAe | gedB "Fmaj7 (2x: Em)" e3 e | gede aedA |1 "Em" BAGB AGEe- :|2 "Em" BAGB AGED |]

